assets/icons/setting_icon.svg

<svg width="24" height="24" viewBox="0 0 24 24" fill="none" xmlns="http://www.w3.org/2000/svg">
<path fill-rule="evenodd" clip-rule="evenodd" d="M14.5 12C14.5 13.3809 13.3809 14.5 12 14.5C10.6191 14.5 9.5 13.3809 9.5 12C9.5 10.6191 10.6191 9.5 12 9.5C13.3809 9.5 14.5 10.6191 14.5 12Z" stroke="#10275A" stroke-width="1.5" stroke-linecap="round" stroke-linejoin="round"/>
<path fill-rule="evenodd" clip-rule="evenodd" d="M20.168 7.25025C19.4845 6.05799 17.9712 5.65004 16.7885 6.33852C15.7598 6.93613 14.4741 6.18838 14.4741 4.99218C14.4741 3.61619 13.3659 2.5 11.9998 2.5V2.5C10.6337 2.5 9.52546 3.61619 9.52546 4.99218C9.52546 6.18838 8.23977 6.93613 7.21199 6.33852C6.02829 5.65004 4.51507 6.05799 3.83153 7.25025C3.14896 8.4425 3.55399 9.96665 4.73769 10.6541C5.76546 11.2527 5.76546 12.7473 4.73769 13.3459C3.55399 14.0343 3.14896 15.5585 3.83153 16.7498C4.51507 17.942 6.02829 18.35 7.21101 17.6625H7.21199C8.23977 17.0639 9.52546 17.8116 9.52546 19.0078V19.0078C9.52546 20.3838 10.6337 21.5 11.9998 21.5V21.5C13.3659 21.5 14.4741 20.3838 14.4741 19.0078V19.0078C14.4741 17.8116 15.7598 17.0639 16.7885 17.6625C17.9712 18.35 19.4845 17.942 20.168 16.7498C20.8515 15.5585 20.4455 14.0343 19.2628 13.3459H19.2618C18.2341 12.7473 18.2341 11.2527 19.2628 10.6541C20.4455 9.96665 20.8515 8.4425 20.168 7.25025V7.25025Z" stroke="#10275A" stroke-width="1.5" stroke-linecap="round" stroke-linejoin="round"/>
</svg>

<svg width="24" height="24" fill="none" xmlns="http://www.w3.org/2000/svg"><path clip-rule="evenodd" d="M14.5 12a2.5 2.5 0 1 1-5 0 2.5 2.5 0 0 1 5 0z" stroke="#10275A" stroke-width="1.5" stroke-linecap="round" stroke-linejoin="round"/><path clip-rule="evenodd" d="M20.168 7.25a2.464 2.464 0 0 0-3.38-.911c-1.028.597-2.314-.15-2.314-1.347A2.484 2.484 0 0 0 12 2.5v0a2.484 2.484 0 0 0-2.475 2.492c0 1.196-1.285 1.944-2.313 1.347a2.465 2.465 0 0 0-3.38.911 2.502 2.502 0 0 0 .906 3.404c1.027.599 1.027 2.093 0 2.692a2.502 2.502 0 0 0-.906 3.404 2.465 2.465 0 0 0 3.379.913h.001c1.028-.6 2.313.149 2.313 1.345v0A2.484 2.484 0 0 0 12 21.5v0a2.484 2.484 0 0 0 2.474-2.492v0c0-1.196 1.286-1.944 2.314-1.345a2.465 2.465 0 0 0 3.38-.913 2.502 2.502 0 0 0-.905-3.404h-.001c-1.028-.599-1.028-2.093 0-2.692a2.501 2.501 0 0 0 .906-3.404v0z" stroke="#10275A" stroke-width="1.5" stroke-linecap="round" stroke-linejoin="round"/></svg>
